public/static/img/assets/status_error.svg

<svg width="60" height="60" viewBox="0 0 60 60" fill="none" xmlns="http://www.w3.org/2000/svg">
<g clip-path="url(#clip0_520_5892)">
<path fill-rule="evenodd" clip-rule="evenodd" d="M0 30C0 37.9565 3.16071 45.5871 8.7868 51.2132C14.4129 56.8393 22.0435 60 30 60C37.9565 60 45.5871 56.8393 51.2132 51.2132C56.8393 45.5871 60 37.9565 60 30C60 22.0435 56.8393 14.4129 51.2132 8.7868C45.5871 3.16071 37.9565 0 30 0C22.0435 0 14.4129 3.16071 8.7868 8.7868C3.16071 14.4129 0 22.0435 0 30ZM29.9185 26.4384L37.5 18.8569C38.7857 17.5711 40.7143 17.5711 42 18.8569C43.2857 20.1426 43.2857 22.0711 42 23.3569L34.3695 30.9873L42 38.7854C43.2857 40.0712 43.2857 41.9997 42 43.2854C40.7143 44.5711 38.7857 44.5711 37.5 43.2854L29.7857 35.5711L22.2857 43.0711C21 44.3569 19.0714 44.3569 17.7857 43.0711C16.7143 41.9997 16.7143 39.8569 17.7857 38.5711L25.2857 31.0711L17.7857 23.5711C16.7143 22.2854 16.7143 20.1426 18 18.8569C19.2857 17.5711 21.2143 17.5711 22.5 18.8569L29.9185 26.4384Z" fill="url(#paint0_linear_520_5892)"/>
<path fill-rule="evenodd" clip-rule="evenodd" d="M0 30C0 37.9565 3.16071 45.5871 8.7868 51.2132C14.4129 56.8393 22.0435 60 30 60C37.9565 60 45.5871 56.8393 51.2132 51.2132C56.8393 45.5871 60 37.9565 60 30C60 22.0435 56.8393 14.4129 51.2132 8.7868C45.5871 3.16071 37.9565 0 30 0C22.0435 0 14.4129 3.16071 8.7868 8.7868C3.16071 14.4129 0 22.0435 0 30ZM29.9185 26.4384L37.5 18.8569C38.7857 17.5711 40.7143 17.5711 42 18.8569C43.2857 20.1426 43.2857 22.0711 42 23.3569L34.3695 30.9873L42 38.7854C43.2857 40.0712 43.2857 41.9997 42 43.2854C40.7143 44.5711 38.7857 44.5711 37.5 43.2854L29.7857 35.5711L22.2857 43.0711C21 44.3569 19.0714 44.3569 17.7857 43.0711C16.7143 41.9997 16.7143 39.8569 17.7857 38.5711L25.2857 31.0711L17.7857 23.5711C16.7143 22.2854 16.7143 20.1426 18 18.8569C19.2857 17.5711 21.2143 17.5711 22.5 18.8569L29.9185 26.4384Z" fill="white" fill-opacity="0.5"/>
</g>
<defs>
<linearGradient id="paint0_linear_520_5892" x1="30" y1="0" x2="30" y2="60" gradientUnits="userSpaceOnUse">
<stop stop-color="#C1C6DC"/>
<stop offset="1" stop-color="#8F92A1"/>
</linearGradient>
<clipPath id="clip0_520_5892">
<rect width="60" height="60" fill="white"/>
</clipPath>
</defs>
</svg>

<svg width="60" height="60" fill="none" xmlns="http://www.w3.org/2000/svg"><g clip-path="url(#a)" fill-rule="evenodd" clip-rule="evenodd"><path d="M0 30a30 30 0 1 0 60 0 30 30 0 0 0-60 0Zm29.919-3.562 7.581-7.581c1.286-1.286 3.214-1.286 4.5 0s1.286 3.214 0 4.5l-7.63 7.63L42 38.785c1.286 1.286 1.286 3.215 0 4.5-1.286 1.286-3.214 1.286-4.5 0l-7.714-7.714-7.5 7.5c-1.286 1.286-3.215 1.286-4.5 0-1.072-1.071-1.072-3.214 0-4.5l7.5-7.5-7.5-7.5c-1.072-1.286-1.072-3.428.214-4.714 1.286-1.286 3.214-1.286 4.5 0l7.419 7.581Z" fill="url(#b)"/><path d="M0 30a30 30 0 1 0 60 0 30 30 0 0 0-60 0Zm29.919-3.562 7.581-7.581c1.286-1.286 3.214-1.286 4.5 0s1.286 3.214 0 4.5l-7.63 7.63L42 38.785c1.286 1.286 1.286 3.215 0 4.5-1.286 1.286-3.214 1.286-4.5 0l-7.714-7.714-7.5 7.5c-1.286 1.286-3.215 1.286-4.5 0-1.072-1.071-1.072-3.214 0-4.5l7.5-7.5-7.5-7.5c-1.072-1.286-1.072-3.428.214-4.714 1.286-1.286 3.214-1.286 4.5 0l7.419 7.581Z" fill="#fff" fill-opacity=".5"/></g><defs><linearGradient id="b" x1="30" y1="0" x2="30" y2="60" gradientUnits="userSpaceOnUse"><stop stop-color="#C1C6DC"/><stop offset="1" stop-color="#8F92A1"/></linearGradient><clipPath id="a"><path fill="#fff" d="M0 0h60v60H0z"/></clipPath></defs></svg>
